X:1
T:Rhona's reel
C:Holmes
R:reel
O:Scotland
%Q:1/4=200
M:4/4
L:1/8
K:A
e \
|: "A"A2Ac e2ce | "(D)"feae "A"fece | "D"agaf "A/C#"e2cA |1 "Bm"BdcB "E7"AFFG :|2 "Bm"Bd"E7"cB "A"A2ce |]
[| "A"agae feae |  "A" feae    fece |    agaf "F#m" e2cA |  "Bm"BdcB "E7"AFFG |]
[| "A"A2Ac e2ce | "(D)"feae "A"fece | "D"agaf "A/C#"e2cA |  "Bm"Bd"E7"cB "A"A3   |]
